src/icons/SVG/48px/Navigation_Arrow_Down_48px.svg

<svg width="48" height="48" viewBox="0 0 48 48" fill="none" xmlns="http://www.w3.org/2000/svg">
  <g id="Square"> </g>
  <g id="Icon">
<path id="Vector" d="M25.5 5.5C25.5 4.67157 24.8284 4 24 4C23.1716 4 22.5 4.67157 22.5 5.5H25.5ZM24 42.5L22.9393 43.5607C23.5251 44.1464 24.4749 44.1464 25.0607 43.5607L24 42.5ZM37.5607 31.0607C38.1464 30.4749 38.1464 29.5251 37.5607 28.9393C36.9749 28.3536 36.0251 28.3536 35.4393 28.9393L37.5607 31.0607ZM12.5607 28.9393C11.9749 28.3536 11.0251 28.3536 10.4393 28.9393C9.85355 29.5251 9.85355 30.4749 10.4393 31.0607L12.5607 28.9393ZM22.5 5.5V42.5H25.5V5.5H22.5ZM25.0607 43.5607L37.5607 31.0607L35.4393 28.9393L22.9393 41.4393L25.0607 43.5607ZM25.0607 41.4393L12.5607 28.9393L10.4393 31.0607L22.9393 43.5607L25.0607 41.4393Z" fill="black"/>
</g>
</svg>

<svg xmlns="http://www.w3.org/2000/svg" viewBox="0 0 48 48">
  <g id="Square"> </g>
  <path d="M25.5 5.5a1.5 1.5 0 00-3 0h3zm-1.5 37l-1.06 1.06a1.5 1.5 0 002.12 0L24 42.5zm13.56-11.44a1.5 1.5 0 00-2.12-2.12l2.12 2.12zm-25-2.12a1.5 1.5 0 00-2.12 2.12l2.12-2.12zM22.5 5.5v37h3v-37h-3zm2.56 38.06l12.5-12.5-2.12-2.12-12.5 12.5 2.12 2.12zm0-2.12l-12.5-12.5-2.12 2.12 12.5 12.5 2.12-2.12z"/>
</svg>
